resources/svg/paintbucket.svg

<svg xmlns="http://www.w3.org/2000/svg" viewBox="0 0 15 15" fill="currentColor"><path fill-rule="evenodd" clip-rule="evenodd" d="M4.5 0C3.11929 0 2 1.11929 2 2.5V6.29284L1.5606 6.73224C0.58429 7.70855 0.584293 9.29146 1.5606 10.2678L4.73217 13.4393C5.70849 14.4157 7.2914 14.4157 8.26771 13.4393L12.4393 9.26777C13.4156 8.29146 13.4156 6.70855 12.4393 5.73224L9.26771 2.56066C8.6326 1.92555 7.74078 1.70359 6.92625 1.89479C6.65566 0.806497 5.67202 0 4.5 0ZM6 3.70705V7H7V2.91383C7.52765 2.72776 8.13858 2.84575 8.5606 3.26777L11.7322 6.43934C12.318 7.02513 12.318 7.97488 11.7322 8.56066L11.2928 9H1.91379C1.7277 8.47234 1.84567 7.86138 2.26771 7.43934L6 3.70705ZM5.991 2.33478C5.90876 1.58409 5.27259 1 4.5 1C3.67157 1 3 1.67157 3 2.5V5.29284L5.73218 2.56066C5.81439 2.47845 5.90091 2.40315 5.991 2.33478Z" fill="black"/><path d="M12.6445 9.73698L14.1788 11.2713C15.0933 12.1858 15.0099 13.6921 14 14.5C13.2075 15.134 12.0815 15.134 11.289 14.5C10.2791 13.6921 10.1957 12.1858 11.1102 11.2713L12.6445 9.73698Z" fill="black"/></svg>

<svg xmlns="http://www.w3.org/2000/svg" viewBox="0 0 15 15" fill="currentColor"><path fill-rule="evenodd" clip-rule="evenodd" d="M4.5 0A2.5 2.5 0 002 2.5v3.793l-.44.44a2.5 2.5 0 000 3.535l3.172 3.171a2.5 2.5 0 003.536 0l4.171-4.171a2.5 2.5 0 000-3.536L9.268 2.561a2.498 2.498 0 00-2.342-.666A2.501 2.501 0 004.5 0zM6 3.707V7h1V2.914a1.5 1.5 0 011.56.354l3.172 3.171a1.5 1.5 0 010 2.122l-.44.439H1.915a1.5 1.5 0 01.354-1.56L6 3.706zm-.009-1.372A1.5 1.5 0 003 2.5v2.793L5.732 2.56c.082-.083.169-.158.259-.226z" fill="currentColor"/><path d="M12.645 9.737l1.534 1.534a2.17 2.17 0 11-3.069 0l1.535-1.534z" fill="currentColor"/></svg>
